projects/icons/src/tuiIconSuperscript.svg

<svg xmlns="http://www.w3.org/2000/svg" id="tuiIconSuperscript" viewBox="0 0 24 24" fill="none">
<path d="M21 11C21.5523 11 22 10.5523 22 10C22 9.44772 21.5523 9 21 9V11ZM16.3333 5.89474C16.3333 6.44702 16.781 6.89474 17.3333 6.89474C17.8856 6.89474 18.3333 6.44702 18.3333 5.89474H16.3333ZM17.0864 9.75451L16.1431 9.4226L17.0864 9.75451ZM18.9193 7.56661L18.4535 6.68169L18.9193 7.56661ZM19.0798 5H19.1816V3H19.0798V5ZM17.2602 11H21V9H17.2602V11ZM16.3333 5.74647V5.89474H18.3333V5.74647H16.3333ZM19.3669 6.20095L18.4535 6.68169L19.385 8.45153L20.2984 7.97079L19.3669 6.20095ZM16.1819 9.31217L16.1431 9.4226L18.0297 10.0864L18.0685 9.97598L16.1819 9.31217ZM17.2602 9C17.8227 9 18.2164 9.55585 18.0297 10.0864L16.1431 9.4226C15.872 10.1929 16.4436 11 17.2602 11V9ZM19.7508 5.65715C19.7174 5.88944 19.5746 6.09164 19.3669 6.20095L20.2984 7.97079C21.0731 7.56307 21.6055 6.80889 21.7304 5.94243L19.7508 5.65715ZM18.4535 6.68169C17.3916 7.24059 16.5802 8.18019 16.1819 9.31217L18.0685 9.97598C18.2994 9.31996 18.7696 8.77543 19.385 8.45153L18.4535 6.68169ZM19.1816 5C19.5319 5 19.8008 5.31046 19.7508 5.65715L21.7304 5.94243C21.9541 4.39011 20.75 3 19.1816 3V5ZM19.0798 3C17.563 3 16.3333 4.22964 16.3333 5.74647H18.3333C18.3333 5.33421 18.6675 5 19.0798 5V3Z" fill="currentColor"/>
<path d="M5 7L9 12M13 17L9 12M9 12L5 17M9 12L13 7" stroke="currentColor" stroke-width="2" stroke-linecap="round" stroke-linejoin="round"/>
</svg>

<svg xmlns="http://www.w3.org/2000/svg" id="tuiIconSuperscript" fill="none" viewBox="0 0 24 24"><path fill="currentColor" d="M21 11a1 1 0 100-2v2zm-4.667-5.105a1 1 0 102 0h-2zm.753 3.86l-.943-.332.943.332zm1.833-2.188l-.466-.885.466.885zM19.08 5h.103V3h-.102v2zm-1.819 6H21V9h-3.74v2zm-.927-5.254v.149h2v-.149h-2zm3.034.455l-.914.48.932 1.77.913-.48-.931-1.77zm-3.185 3.111l-.039.11 1.887.664.038-.11-1.886-.664zM17.26 9c.563 0 .956.556.77 1.086l-1.887-.663c-.271.77.3 1.577 1.117 1.577V9zm2.49-3.343a.732.732 0 01-.383.544l.931 1.77a2.733 2.733 0 001.432-2.029l-1.98-.285zm-1.297 1.025a4.757 4.757 0 00-2.271 2.63l1.887.664c.23-.656.7-1.2 1.316-1.524l-.932-1.77zM19.182 5c.35 0 .619.31.569.657l1.98.285A2.575 2.575 0 0019.18 3v2zm-.102-2a2.747 2.747 0 00-2.747 2.746h2c0-.412.335-.746.747-.746V3z"/><path stroke="currentColor" stroke-linecap="round" stroke-linejoin="round" stroke-width="2" d="M5 7l4 5m4 5l-4-5m0 0l-4 5m4-5l4-5"/></svg>
